static/assets/images/networks/corn.svg

<svg width="256" height="256" viewBox="0 0 256 256" fill="none" xmlns="http://www.w3.org/2000/svg">
<path d="M126.536 97.4984L148.55 104.705C153.884 106.467 156.794 112.168 155.015 117.453C153.237 122.738 147.483 125.621 142.149 123.859L120.135 116.652C114.801 114.891 111.892 109.189 113.67 103.904C115.448 98.6195 121.202 95.7366 126.536 97.4984Z" fill="white"/>
<path d="M137.689 72.2253L154.758 77.8308C160.091 79.5927 163 85.294 161.223 90.5789C159.445 95.8637 153.691 98.746 148.357 96.9848L131.288 91.3793C125.954 89.6175 123.045 83.9167 124.823 78.6313C126.601 73.3464 132.355 70.4641 137.689 72.2253Z" fill="white"/>
<path d="M151.33 47.7877L158.54 50.1577C163.873 51.9195 166.782 57.6209 165.005 62.9057C163.227 68.1906 157.473 71.0735 152.139 69.3117L144.93 66.9417C139.596 65.1799 136.687 59.4785 138.465 54.1937C140.242 48.9088 145.996 46.0258 151.33 47.7877Z" fill="white"/>
<path d="M159.606 22.9001L166.815 25.2703C172.149 27.0319 175.058 32.7333 173.281 38.0184C171.502 43.3033 165.748 46.1856 160.414 44.4244L153.206 42.0538C147.872 40.2926 144.962 34.591 146.74 29.3061C148.518 24.0212 154.272 21.1385 159.606 22.9001Z" fill="white"/>
<path d="M169.918 111.59L160.253 108.42C159.897 108.291 159.509 108.195 159.153 108.131C163.809 110.245 163.744 114.729 162.095 119.662C160.447 124.594 157.796 128.214 152.818 127.189C153.173 127.349 153.529 127.477 153.885 127.605L163.55 130.776C168.884 132.538 174.671 129.655 176.416 124.37C178.194 119.085 175.284 113.352 169.951 111.622L169.918 111.59Z" fill="white"/>
<path d="M176.48 84.813L166.815 81.642C166.459 81.5136 166.071 81.4177 165.715 81.3532C170.37 83.4677 170.306 87.9515 168.657 92.8844C167.009 97.8166 164.358 101.436 159.38 100.411C159.732 100.57 160.086 100.698 160.438 100.825L160.446 100.828L170.112 103.998C175.446 105.76 181.233 102.878 182.978 97.5924C184.756 92.3075 181.847 86.5742 176.513 84.8449L176.48 84.813Z" fill="white"/>
<path d="M179.034 56.7572L169.369 53.5861C169.013 53.4577 168.625 53.3619 168.27 53.298C172.925 55.4118 172.86 59.8956 171.212 64.8285C169.562 69.7607 166.912 73.3802 161.933 72.3556C162.289 72.5153 162.645 72.6437 163 72.7721L172.666 75.9425C178 77.7043 183.787 74.822 185.532 69.5365C187.31 64.2517 184.401 58.5184 179.067 56.7891L179.034 56.7572Z" fill="white"/>
<path d="M124.985 60.3096L134.65 63.4807C135.006 63.6091 135.394 63.7049 135.749 63.7688C131.094 61.655 131.159 57.1705 132.808 52.2383C134.456 47.3054 137.107 43.6859 142.085 44.7112C141.734 44.5528 141.383 44.4261 141.031 44.2992C141.027 44.2977 141.023 44.2962 141.018 44.2947L131.353 41.1237C126.019 39.3625 120.232 42.2448 118.487 47.5296C116.709 52.8145 119.619 58.5478 124.952 60.2777L124.985 60.3096Z" fill="white"/>
<path d="M110.923 84.6527L120.588 87.8237C120.944 87.9521 121.332 88.0479 121.687 88.1118C117.032 85.998 117.097 81.5142 118.746 76.5813C120.394 71.6485 123.045 68.0296 128.023 69.0543C127.672 68.8958 127.321 68.7692 126.969 68.6423C126.965 68.6408 126.96 68.6393 126.956 68.6378L117.291 65.4667C111.957 63.7055 106.17 66.5878 104.425 71.8727C102.647 77.1582 105.556 82.8915 110.89 84.6207L110.923 84.6527Z" fill="white"/>
<path d="M148.583 185.644C154.628 153.199 172.828 168.989 172.828 168.989C172.828 168.989 176.417 159.255 168.255 154.467C166.618 153.507 164.51 152.746 161.804 152.302C159.055 151.85 155.828 152.054 152.334 152.759C135.248 156.201 111.775 171.597 106.462 180.744C106.462 180.744 117.932 108.198 70.9024 101.475C73.1327 101.914 79.6047 127.157 74.5225 139.81C72.5925 144.623 70.008 148.535 67.5631 152.235C58.9927 165.207 52.1386 175.581 81.2141 213.062H81.2266L81.2463 213.03V213.062H81.2266C80.7097 213.908 70.4192 231.319 95.05 237.725C116.035 243.183 121.99 232.576 122.585 222.954C114.668 222.339 106.198 219.979 101.711 213.397L101.677 213.38V213.348L101.711 213.397C102.262 213.673 109.578 217.187 123.992 216.983C129.006 215.592 144.154 209.473 148.583 185.644Z" fill="white"/>
<path fill-rule="evenodd" clip-rule="evenodd" d="M148.55 104.705L126.536 97.4984C121.202 95.7366 115.448 98.6195 113.67 103.904C111.892 109.189 114.801 114.891 120.135 116.652L142.149 123.859C147.483 125.621 153.237 122.738 155.015 117.453C156.794 112.168 153.884 106.467 148.55 104.705ZM139.822 130.746L117.808 123.539C115.411 122.747 112.93 122.893 110.762 123.773C113.349 130.301 114.72 137.287 115.349 143.983L134.21 150.125C137.882 148.506 141.483 147.166 144.916 146.172C145.491 145.371 145.958 144.474 146.288 143.493C148.065 138.208 145.156 132.507 139.822 130.746ZM154.758 77.8308L137.689 72.2253C132.355 70.4641 126.601 73.3464 124.823 78.6313C123.045 83.9167 125.954 89.6175 131.288 91.3793L148.357 96.9848C153.691 98.746 159.445 95.8637 161.223 90.5789C163 85.294 160.091 79.5927 154.758 77.8308ZM158.54 50.1577L151.33 47.7877C145.996 46.0258 140.242 48.9088 138.465 54.1937C136.687 59.4785 139.596 65.1799 144.93 66.9417L152.139 69.3117C157.473 71.0735 163.227 68.1906 165.005 62.9057C166.782 57.6209 163.873 51.9195 158.54 50.1577ZM166.815 25.2703L159.606 22.9001C154.272 21.1385 148.518 24.0212 146.74 29.3061C144.962 34.591 147.872 40.2926 153.206 42.0538L160.414 44.4244C165.748 46.1856 171.502 43.3033 173.281 38.0184C175.058 32.7333 172.149 27.0319 166.815 25.2703ZM160.253 108.42L169.918 111.59L169.951 111.622C175.284 113.352 178.194 119.085 176.416 124.37C174.671 129.655 168.884 132.538 163.55 130.776L153.885 127.605C153.529 127.477 153.173 127.349 152.818 127.189C157.796 128.214 160.447 124.594 162.095 119.662C163.744 114.729 163.809 110.245 159.153 108.131C159.509 108.195 159.897 108.291 160.253 108.42ZM153.108 136.349L162.774 139.52L162.806 139.552C166.224 140.661 168.646 143.412 169.477 146.636C167.757 145.811 165.724 145.125 163.324 144.676C162.735 144.569 163.08 144.533 163.299 144.51C163.669 144.471 163.681 144.47 158.217 144.228C157.437 144.193 156.633 144.194 155.808 144.228C156.371 140.691 155.575 137.681 152.009 136.061C152.364 136.125 152.753 136.222 153.108 136.349ZM166.815 81.642L176.48 84.813L176.513 84.8449C181.847 86.5742 184.756 92.3075 182.978 97.5924C181.233 102.878 175.446 105.76 170.112 103.998L160.446 100.828L160.438 100.825C160.086 100.698 159.732 100.57 159.38 100.411C164.358 101.436 167.009 97.8166 168.657 92.8844C170.306 87.9515 170.37 83.4677 165.715 81.3532C166.071 81.4177 166.459 81.5136 166.815 81.642ZM169.369 53.5861L179.034 56.7572L179.067 56.7891C184.401 58.5184 187.31 64.2517 185.532 69.5365C183.787 74.822 178 77.7043 172.666 75.9425L163 72.7721C162.645 72.6437 162.289 72.5153 161.933 72.3556C166.912 73.3802 169.562 69.7607 171.212 64.8285C172.86 59.8956 172.925 55.4118 168.27 53.298C168.625 53.3619 169.013 53.4577 169.369 53.5861ZM134.65 63.4807L124.985 60.3096L124.952 60.2777C119.619 58.5478 116.709 52.8145 118.487 47.5296C120.232 42.2448 126.019 39.3625 131.353 41.1237L141.018 44.2947L141.031 44.2992C141.383 44.4261 141.734 44.5528 142.085 44.7112C137.107 43.6859 134.456 47.3054 132.808 52.2383C131.159 57.1705 131.094 61.655 135.749 63.7688C135.394 63.7049 135.006 63.6091 134.65 63.4807ZM120.588 87.8237L110.923 84.6527L110.89 84.6207C105.556 82.8915 102.647 77.1582 104.425 71.8727C106.17 66.5878 111.957 63.7055 117.291 65.4667L126.956 68.6378L126.969 68.6423C127.321 68.7692 127.672 68.8958 128.023 69.0543C123.045 68.0296 120.394 71.6485 118.746 76.5813C117.097 81.5142 117.032 85.998 121.687 88.1118C121.332 88.0479 120.944 87.9521 120.588 87.8237ZM109.661 113.094C109.306 113.03 108.918 112.934 108.562 112.806L103.501 111.146C100.241 107.128 96.3904 103.879 91.9719 101.405C91.7646 99.9217 91.8892 98.37 92.3988 96.8552C94.1448 91.5704 99.9312 88.6874 105.265 90.4492L114.931 93.6203L114.958 93.6299C115.304 93.7551 115.651 93.8805 115.997 94.0368C111.019 93.0115 108.368 96.631 106.72 101.564C105.071 106.496 105.007 110.981 109.661 113.094ZM115.61 160.499C115.623 160.255 115.639 159.979 115.657 159.679C115.668 159.48 115.681 159.271 115.694 159.054L115.694 159.051C115.819 156.947 115.991 154.053 115.997 152.331L124.33 155.051C121.178 156.807 118.245 158.642 115.61 160.499Z" fill="white"/>
<path fill-rule="evenodd" clip-rule="evenodd" d="M128 256C198.692 256 256 198.692 256 128C256 57.3077 198.692 0 128 0C57.3077 0 0 57.3077 0 128C0 198.692 57.3077 256 128 256ZM148.55 104.705L126.536 97.4984C121.202 95.7366 115.448 98.6195 113.67 103.904C111.892 109.189 114.801 114.891 120.135 116.652L142.149 123.859C147.483 125.621 153.237 122.738 155.015 117.453C156.794 112.168 153.884 106.467 148.55 104.705ZM139.822 130.746L117.808 123.539C115.411 122.747 112.93 122.893 110.762 123.773C113.349 130.301 114.72 137.287 115.349 143.983L134.21 150.125C137.882 148.506 141.483 147.166 144.916 146.172C145.491 145.371 145.958 144.474 146.288 143.493C148.065 138.208 145.156 132.507 139.822 130.746ZM154.758 77.8308L137.689 72.2253C132.355 70.4641 126.601 73.3464 124.823 78.6313C123.045 83.9167 125.954 89.6175 131.288 91.3793L148.357 96.9848C153.691 98.746 159.445 95.8637 161.223 90.5789C163 85.294 160.091 79.5927 154.758 77.8308ZM158.54 50.1577L151.33 47.7877C145.996 46.0258 140.242 48.9088 138.465 54.1937C136.687 59.4785 139.596 65.1799 144.93 66.9417L152.139 69.3117C157.473 71.0735 163.227 68.1906 165.005 62.9057C166.782 57.6209 163.873 51.9195 158.54 50.1577ZM166.815 25.2703L159.606 22.9001C154.272 21.1385 148.518 24.0212 146.74 29.3061C144.962 34.591 147.872 40.2926 153.206 42.0538L160.414 44.4244C165.748 46.1856 171.502 43.3033 173.281 38.0184C175.058 32.7333 172.149 27.0319 166.815 25.2703ZM160.253 108.42L169.918 111.59L169.951 111.622C175.284 113.352 178.194 119.085 176.416 124.37C174.671 129.655 168.884 132.538 163.55 130.776L153.885 127.605C153.529 127.477 153.173 127.349 152.818 127.189C157.796 128.214 160.447 124.594 162.095 119.662C163.744 114.729 163.809 110.245 159.153 108.131C159.509 108.195 159.897 108.291 160.253 108.42ZM153.108 136.349L162.774 139.52L162.806 139.552C166.224 140.661 168.646 143.412 169.477 146.636C167.757 145.811 165.724 145.125 163.324 144.676C162.735 144.569 163.08 144.533 163.299 144.51C163.669 144.471 163.681 144.47 158.217 144.228C157.437 144.193 156.633 144.194 155.808 144.228C156.371 140.691 155.575 137.681 152.009 136.061C152.364 136.125 152.753 136.222 153.108 136.349ZM166.815 81.642L176.48 84.813L176.513 84.8449C181.847 86.5742 184.756 92.3075 182.978 97.5924C181.233 102.878 175.446 105.76 170.112 103.998L160.446 100.828L160.438 100.825C160.086 100.698 159.732 100.57 159.38 100.411C164.358 101.436 167.009 97.8166 168.657 92.8844C170.306 87.9515 170.37 83.4677 165.715 81.3532C166.071 81.4177 166.459 81.5136 166.815 81.642ZM169.369 53.5861L179.034 56.7572L179.067 56.7891C184.401 58.5184 187.31 64.2517 185.532 69.5365C183.787 74.822 178 77.7043 172.666 75.9425L163 72.7721C162.645 72.6437 162.289 72.5153 161.933 72.3556C166.912 73.3802 169.562 69.7607 171.212 64.8285C172.86 59.8956 172.925 55.4118 168.27 53.298C168.625 53.3619 169.013 53.4577 169.369 53.5861ZM134.65 63.4807L124.985 60.3096L124.952 60.2777C119.619 58.5478 116.709 52.8145 118.487 47.5296C120.232 42.2448 126.019 39.3625 131.353 41.1237L141.018 44.2947L141.031 44.2992C141.383 44.4261 141.734 44.5528 142.085 44.7112C137.107 43.6859 134.456 47.3054 132.808 52.2383C131.159 57.1705 131.094 61.655 135.749 63.7688C135.394 63.7049 135.006 63.6091 134.65 63.4807ZM120.588 87.8237L110.923 84.6527L110.89 84.6207C105.556 82.8915 102.647 77.1582 104.425 71.8727C106.17 66.5878 111.957 63.7055 117.291 65.4667L126.956 68.6378L126.969 68.6423C127.321 68.7692 127.672 68.8958 128.023 69.0543C123.045 68.0296 120.394 71.6485 118.746 76.5813C117.097 81.5142 117.032 85.998 121.687 88.1118C121.332 88.0479 120.944 87.9521 120.588 87.8237ZM109.661 113.094C109.306 113.03 108.918 112.934 108.562 112.806L103.501 111.146C100.241 107.128 96.3904 103.879 91.9719 101.405C91.7646 99.9217 91.8892 98.37 92.3988 96.8552C94.1448 91.5704 99.9312 88.6874 105.265 90.4492L114.931 93.6203L114.958 93.6299C115.304 93.7551 115.651 93.8805 115.997 94.0368C111.019 93.0115 108.368 96.631 106.72 101.564C105.071 106.496 105.007 110.981 109.661 113.094ZM172.828 168.989C172.828 168.989 154.628 153.199 148.583 185.644C144.154 209.473 129.006 215.592 123.992 216.983C109.578 217.187 102.262 213.673 101.711 213.397C106.198 219.979 114.668 222.339 122.585 222.954C121.99 232.576 116.035 243.183 95.05 237.725C70.4192 231.319 80.7097 213.908 81.2266 213.062H81.2141C52.1386 175.581 58.9927 165.207 67.5631 152.235C70.008 148.535 72.5925 144.623 74.5225 139.81C79.6047 127.157 73.1327 101.914 70.9024 101.475L70.8694 101.471L70.8833 101.472C70.8896 101.473 70.896 101.474 70.9024 101.475C117.932 108.198 106.462 180.744 106.462 180.744C111.775 171.597 135.248 156.201 152.334 152.759C155.828 152.054 159.055 151.85 161.804 152.302C164.51 152.746 166.618 153.507 168.255 154.467C176.417 159.255 172.828 168.989 172.828 168.989ZM124.33 155.051L115.997 152.331C115.991 154.053 115.819 156.947 115.694 159.051L115.694 159.054L115.657 159.679C115.639 159.979 115.623 160.255 115.61 160.499C118.245 158.642 121.178 156.807 124.33 155.051Z" fill="#FF931E"/>
</svg>

<svg xmlns="http://www.w3.org/2000/svg" fill="none" viewBox="0 0 256 256"><path fill="#fff" d="m126.536 97.498 22.014 7.207c5.334 1.762 8.244 7.463 6.465 12.748s-7.532 8.168-12.866 6.406l-22.014-7.207c-5.334-1.761-8.243-7.463-6.465-12.748s7.532-8.167 12.866-6.406m11.153-25.273 17.069 5.606c5.333 1.762 8.242 7.463 6.465 12.748s-7.532 8.167-12.866 6.406l-17.069-5.606c-5.334-1.761-8.243-7.462-6.465-12.748s7.532-8.167 12.866-6.406m13.641-24.437 7.21 2.37c5.333 1.761 8.242 7.463 6.465 12.748s-7.532 8.167-12.866 6.406l-7.209-2.37c-5.334-1.762-8.243-7.463-6.465-12.748 1.777-5.285 7.531-8.168 12.865-6.406m8.276-24.888 7.209 2.37c5.334 1.762 8.243 7.463 6.466 12.748-1.779 5.285-7.533 8.168-12.867 6.406l-7.208-2.37c-5.334-1.761-8.244-7.463-6.466-12.748s7.532-8.167 12.866-6.406m10.312 88.69-9.665-3.17a7 7 0 0 0-1.1-.289c4.656 2.114 4.591 6.598 2.942 11.531-1.648 4.932-4.299 8.552-9.277 7.527.355.16.711.288 1.067.416l9.665 3.171c5.334 1.762 11.121-1.121 12.866-6.406 1.778-5.285-1.132-11.018-6.465-12.748zm6.562-26.777-9.665-3.171a7 7 0 0 0-1.1-.289c4.655 2.115 4.591 6.599 2.942 11.531-1.648 4.933-4.299 8.552-9.277 7.527.352.159.706.287 1.058.414l.008.003 9.666 3.17c5.334 1.762 11.121-1.12 12.866-6.406 1.778-5.284-1.131-11.018-6.465-12.747zm2.554-28.056-9.665-3.17a7 7 0 0 0-1.099-.289c4.655 2.114 4.59 6.598 2.942 11.53-1.65 4.933-4.3 8.552-9.279 7.528.356.16.712.288 1.067.416l9.666 3.17c5.334 1.762 11.121-1.12 12.866-6.405 1.778-5.285-1.131-11.019-6.465-12.748z"/><path fill="#fff" d="m124.985 60.31 9.665 3.17c.356.13.744.225 1.099.289-4.655-2.114-4.59-6.599-2.941-11.53 1.648-4.934 4.299-8.553 9.277-7.528a14 14 0 0 0-1.054-.412l-.013-.004-9.665-3.171c-5.334-1.762-11.121 1.12-12.866 6.406-1.778 5.285 1.132 11.018 6.465 12.748zm-14.062 24.343 9.665 3.17c.356.13.744.225 1.099.289-4.655-2.114-4.59-6.598-2.941-11.53 1.648-4.933 4.299-8.552 9.277-7.528a14 14 0 0 0-1.054-.412l-.013-.004-9.665-3.171c-5.334-1.761-11.121 1.12-12.866 6.406-1.778 5.285 1.131 11.018 6.465 12.748zm37.66 100.991c6.045-32.445 24.245-16.655 24.245-16.655s3.589-9.734-4.573-14.522c-1.637-.96-3.745-1.721-6.451-2.165-2.749-.452-5.976-.248-9.47.457-17.086 3.442-40.559 18.838-45.872 27.985 0 0 11.47-72.546-35.56-79.269 2.23.439 8.703 25.682 3.62 38.335-1.93 4.813-4.514 8.725-6.959 12.425-8.57 12.972-15.424 23.346 13.651 60.827h.013l.02-.032v.032h-.02c-.517.846-10.808 18.257 13.823 24.663 20.985 5.458 26.94-5.149 27.535-14.771-7.917-.615-16.387-2.975-20.874-9.557l-.034-.017v-.032l.034.049c.551.276 7.867 3.79 22.281 3.586 5.014-1.391 20.162-7.51 24.591-31.339"/><path fill="#fff" fill-rule="evenodd" d="m148.55 104.705-22.014-7.207c-5.334-1.761-11.088 1.121-12.866 6.406s1.131 10.987 6.465 12.748l22.014 7.207c5.334 1.762 11.088-1.121 12.866-6.406s-1.131-10.986-6.465-12.748m-8.728 26.041-22.014-7.207a10.18 10.18 0 0 0-7.046.234c2.587 6.528 3.958 13.514 4.587 20.21l18.861 6.142c3.672-1.619 7.273-2.959 10.706-3.953a10.1 10.1 0 0 0 1.372-2.679c1.777-5.285-1.132-10.986-6.466-12.747m14.936-52.915-17.069-5.606c-5.334-1.76-11.088 1.121-12.866 6.406s1.131 10.987 6.465 12.748l17.069 5.606c5.334 1.761 11.088-1.121 12.866-6.406 1.777-5.285-1.132-10.986-6.465-12.748m3.782-27.673-7.21-2.37c-5.334-1.762-11.088 1.12-12.865 6.406-1.778 5.284 1.131 10.986 6.465 12.748l7.209 2.37c5.334 1.761 11.088-1.121 12.866-6.406 1.777-5.285-1.132-10.986-6.465-12.748m8.275-24.888-7.209-2.37c-5.334-1.761-11.088 1.121-12.866 6.406s1.132 10.987 6.466 12.748l7.208 2.37c5.334 1.762 11.088-1.12 12.867-6.406 1.777-5.285-1.132-10.986-6.466-12.748m-6.562 83.15 9.665 3.17.033.032c5.333 1.73 8.243 7.463 6.465 12.748-1.745 5.285-7.532 8.168-12.866 6.406l-9.665-3.171c-.356-.128-.712-.256-1.067-.416 4.978 1.025 7.629-2.595 9.277-7.527 1.649-4.933 1.714-9.417-2.942-11.531.356.064.744.16 1.1.289m-7.145 27.929 9.666 3.171.032.032a10.09 10.09 0 0 1 6.671 7.084c-1.72-.825-3.753-1.511-6.153-1.96-.589-.107-.244-.143-.025-.166.37-.039.382-.04-5.082-.282a28 28 0 0 0-2.409 0c.563-3.537-.233-6.547-3.799-8.167a7 7 0 0 1 1.099.288m13.707-54.707 9.665 3.171.033.032c5.334 1.73 8.243 7.463 6.465 12.747-1.745 5.286-7.532 8.168-12.866 6.406l-9.666-3.17-.008-.003a14 14 0 0 1-1.058-.414c4.978 1.025 7.629-2.594 9.277-7.527 1.649-4.933 1.713-9.416-2.942-11.53.356.064.744.16 1.1.288m2.554-28.056 9.665 3.171.033.032c5.334 1.73 8.243 7.463 6.465 12.748-1.745 5.285-7.532 8.167-12.866 6.405L163 72.773a15 15 0 0 1-1.067-.416c4.979 1.024 7.629-2.595 9.279-7.527 1.648-4.933 1.713-9.417-2.942-11.531.355.064.743.16 1.099.288m-34.719 9.895-9.665-3.171-.033-.032c-5.333-1.73-8.243-7.463-6.465-12.748 1.745-5.285 7.532-8.168 12.866-6.406l9.665 3.17.013.005c.352.127.703.254 1.054.412-4.978-1.025-7.629 2.594-9.277 7.527-1.649 4.932-1.714 9.417 2.941 11.53a7 7 0 0 1-1.099-.287m-14.062 24.343-9.665-3.171-.033-.032c-5.334-1.73-8.243-7.463-6.465-12.748 1.745-5.285 7.532-8.168 12.866-6.406l9.665 3.17.013.005c.352.127.703.254 1.054.412-4.978-1.024-7.629 2.594-9.277 7.527-1.649 4.933-1.714 9.417 2.941 11.53a7 7 0 0 1-1.099-.287m-10.927 25.27a7 7 0 0 1-1.099-.288l-5.061-1.66c-3.26-4.018-7.11-7.267-11.53-9.741a9.9 9.9 0 0 1 .428-4.55c1.746-5.285 7.532-8.168 12.866-6.406l9.666 3.171.027.01c.346.125.693.25 1.039.407-4.978-1.026-7.629 2.594-9.277 7.527-1.649 4.932-1.713 9.417 2.941 11.53m5.949 47.405.047-.82.037-.625v-.003c.125-2.104.297-4.998.303-6.72l8.333 2.72c-3.152 1.756-6.085 3.591-8.72 5.448" clip-rule="evenodd"/><path fill="#FF931E" fill-rule="evenodd" d="M128 256c70.692 0 128-57.308 128-128S198.692 0 128 0 0 57.308 0 128s57.308 128 128 128m20.55-151.295-22.014-7.207c-5.334-1.761-11.088 1.121-12.866 6.406s1.131 10.987 6.465 12.748l22.014 7.207c5.334 1.762 11.088-1.121 12.866-6.406s-1.131-10.986-6.465-12.748m-8.728 26.041-22.014-7.207a10.18 10.18 0 0 0-7.046.234c2.587 6.528 3.958 13.514 4.587 20.21l18.861 6.142c3.672-1.619 7.273-2.959 10.706-3.953a10.1 10.1 0 0 0 1.372-2.679c1.777-5.285-1.132-10.986-6.466-12.747m14.936-52.915-17.069-5.606c-5.334-1.76-11.088 1.121-12.866 6.406s1.131 10.987 6.465 12.748l17.069 5.606c5.334 1.761 11.088-1.121 12.866-6.406 1.777-5.285-1.132-10.986-6.465-12.748m3.782-27.673-7.21-2.37c-5.334-1.762-11.088 1.12-12.865 6.406-1.778 5.284 1.131 10.986 6.465 12.748l7.209 2.37c5.334 1.761 11.088-1.121 12.866-6.406 1.777-5.285-1.132-10.986-6.465-12.748m8.275-24.888-7.209-2.37c-5.334-1.761-11.088 1.121-12.866 6.406s1.132 10.987 6.466 12.748l7.208 2.37c5.334 1.762 11.088-1.12 12.867-6.406 1.777-5.285-1.132-10.986-6.466-12.748m-6.562 83.15 9.665 3.17.033.032c5.333 1.73 8.243 7.463 6.465 12.748-1.745 5.285-7.532 8.168-12.866 6.406l-9.665-3.171c-.356-.128-.712-.256-1.067-.416 4.978 1.025 7.629-2.595 9.277-7.527 1.649-4.933 1.714-9.417-2.942-11.531.356.064.744.16 1.1.289m-7.145 27.929 9.666 3.171.032.032a10.09 10.09 0 0 1 6.671 7.084c-1.72-.825-3.753-1.511-6.153-1.96-.589-.107-.244-.143-.025-.166.37-.039.382-.04-5.082-.282a28 28 0 0 0-2.409 0c.563-3.537-.233-6.547-3.799-8.167a7 7 0 0 1 1.099.288m13.707-54.707 9.665 3.171.033.032c5.334 1.73 8.243 7.463 6.465 12.747-1.745 5.286-7.532 8.168-12.866 6.406l-9.666-3.17-.008-.003a14 14 0 0 1-1.058-.414c4.978 1.025 7.629-2.594 9.277-7.527 1.649-4.933 1.713-9.416-2.942-11.53.356.064.744.16 1.1.288m2.554-28.056 9.665 3.171.033.032c5.334 1.73 8.243 7.463 6.465 12.748-1.745 5.285-7.532 8.167-12.866 6.405L163 72.773a15 15 0 0 1-1.067-.416c4.979 1.024 7.629-2.595 9.279-7.527 1.648-4.933 1.713-9.417-2.942-11.531.355.064.743.16 1.099.288m-34.719 9.895-9.665-3.171-.033-.032c-5.333-1.73-8.243-7.463-6.465-12.748 1.745-5.285 7.532-8.168 12.866-6.406l9.665 3.17.013.005c.352.127.703.254 1.054.412-4.978-1.025-7.629 2.594-9.277 7.527-1.649 4.932-1.714 9.417 2.941 11.53a7 7 0 0 1-1.099-.287m-14.062 24.343-9.665-3.171-.033-.032c-5.334-1.73-8.243-7.463-6.465-12.748 1.745-5.285 7.532-8.168 12.866-6.406l9.665 3.17.013.005c.352.127.703.254 1.054.412-4.978-1.024-7.629 2.594-9.277 7.527-1.649 4.933-1.714 9.417 2.941 11.53a7 7 0 0 1-1.099-.287m-10.927 25.27a7 7 0 0 1-1.099-.288l-5.061-1.66c-3.26-4.018-7.11-7.267-11.53-9.741a9.9 9.9 0 0 1 .428-4.55c1.746-5.285 7.532-8.168 12.866-6.406l9.666 3.171.027.01c.346.125.693.25 1.039.407-4.978-1.026-7.629 2.594-9.277 7.527-1.649 4.932-1.713 9.417 2.941 11.53m63.167 55.895s-18.2-15.79-24.245 16.655c-4.429 23.829-19.577 29.948-24.591 31.339-14.414.204-21.73-3.31-22.281-3.586 4.487 6.582 12.957 8.942 20.874 9.557-.595 9.622-6.55 20.229-27.535 14.771-24.63-6.406-14.34-23.817-13.823-24.663h-.013c-29.075-37.481-22.221-47.855-13.65-60.827 2.444-3.7 5.029-7.612 6.959-12.425 5.082-12.653-1.39-37.896-3.62-38.335l-.034-.004.014.001.02.003c47.029 6.723 35.559 79.269 35.559 79.269 5.313-9.147 28.786-24.543 45.872-27.985 3.494-.705 6.721-.909 9.47-.457 2.706.444 4.814 1.205 6.451 2.165 8.162 4.788 4.573 14.522 4.573 14.522m-48.498-13.938-8.333-2.72c-.006 1.722-.178 4.616-.303 6.72v.003l-.037.625-.047.82c2.635-1.857 5.568-3.692 8.72-5.448" clip-rule="evenodd"/></svg>
